static/icons/tailwind.svg

<svg class='w-8 h-8' width="48" height="29" viewBox="0 0 48 29" fill="none" xmlns="http://www.w3.org/2000/svg">
<path d="M24 0C17.5998 0 13.5999 3.19919 11.9997 9.59698C14.4 6.39779 17.2001 5.19854 20.3999 5.99804C22.2257 6.45421 23.5306 7.7789 24.9754 9.24465C27.3282 11.6323 30.0515 14.3958 36.0003 14.3958C42.3999 14.3958 46.4004 11.1966 48 4.79819C45.6003 7.99739 42.8003 9.19723 39.5998 8.39773C37.7746 7.94156 36.4697 6.61687 35.0249 5.15112C32.6721 2.76343 29.9482 0 24 0ZM11.9997 14.3958C5.6001 14.3958 1.5996 17.595 0 23.9934C2.3997 20.7942 5.19975 19.5943 8.40015 20.3944C10.2254 20.8512 11.5303 22.1753 12.9751 23.6404C15.3279 26.0281 18.0518 28.7921 24 28.7921C30.4002 28.7921 34.4001 25.593 36.0003 19.1946C33.6 22.3938 30.8 23.5936 27.6002 22.7935C25.7743 22.3379 24.4694 21.0126 23.0246 19.5475C20.6718 17.1598 17.9485 14.3958 11.9997 14.3958Z" fill="#06B6D4"/>
</svg>

<svg class="w-8 h-8" width="48" height="29" fill="none" xmlns="http://www.w3.org/2000/svg"><path d="M24 0c-6.4 0-10.4 3.2-12 9.597 2.4-3.2 5.2-4.398 8.4-3.599 1.826.456 3.13 1.78 4.575 3.247 2.353 2.387 5.076 5.15 11.025 5.15 6.4 0 10.4-3.198 12-9.597-2.4 3.2-5.2 4.4-8.4 3.6-1.825-.456-3.13-1.781-4.575-3.247C32.672 2.763 29.948 0 24 0ZM12 14.396c-6.4 0-10.4 3.199-12 9.597 2.4-3.199 5.2-4.399 8.4-3.599 1.825.457 3.13 1.781 4.575 3.246 2.353 2.388 5.077 5.152 11.025 5.152 6.4 0 10.4-3.199 12-9.597-2.4 3.199-5.2 4.399-8.4 3.599-1.826-.456-3.13-1.781-4.575-3.247-2.353-2.387-5.076-5.151-11.025-5.151Z" fill="#06B6D4"/></svg>
